X: 1507
T: Polonäs ur A Westerlunds notbok nr 118
O: Skåne
B: A Westerlunds notbok nr 118
B: [[http://www.smus.se/earkiv/fmk/browselarge.php?lang=sw&katalogid=M+137&bildnr=00053|SMUS - katalog M137 bild 53]] nr 118
R: Polonäs
Z: Nils L
M: 3/4
L: 1/16
K: Am
A2c2 c2d2 d2e2 | f4 f2ef e4 | f4 f2af e2d2 | c2d2 B2d2 c2A2 ::
a4 a2ba g2e2 | g4 g2ag f2d2 | f4 f2gf e2d2 | c2d2 B2d2 c2A2 :|
(:musicend:)
(:music:)
